X: 1
T: Shove That Pig's Foot a Little Further in the Fire
R: reel
Z: 2009 John Chambers <jc:trillian.mit.edu>
N: A "pig's foot" supposedly refers to a fireplace tool for manipulating the wood.
S: printed MS from Debbie Knight
M: C|
L: 1/8
K: G
GA \
| "G"BdBA G2E2 | "C"GAGE "D7"D4 | "G"DEG2 "Em"B3d | "Am"B2A2- "D7"A2GA \
| "G"BdBA G2E2 | "C"GAGE "D7"D4 | "G"DEG2 "D7"B3G | "G"A2 G4 :|
|: GA \
| "G"Bd2B dBdg | "C"edBc "D7"d4 | "C"g4 g3d | "D7"e2d2- d2dd \
| "G"Bd2B dBdg | "C"edBc "D7"d4 | "G"BABd "D7"BAGB | "G"A2 G4 :|



